lib/flags/s/TF.svg

<svg xmlns="http://www.w3.org/2000/svg" fill="none" viewBox="0 0 16 12"><mask id="TF_svg__a" width="16" height="12" x="0" y="0" mask-type="alpha" maskUnits="userSpaceOnUse"><path fill="#fff" d="M0 0H16V12H0z"/></mask><g mask="url(#TF_svg__a)"><path fill="#2E42A5" fill-rule="evenodd" d="M0 0V12H16V0H0Z" clip-rule="evenodd"/><mask id="TF_svg__b" width="16" height="12" x="0" y="0" mask-type="alpha" maskUnits="userSpaceOnUse"><path fill="#fff" fill-rule="evenodd" d="M0 0V12H16V0H0Z" clip-rule="evenodd"/></mask><g mask="url(#TF_svg__b)"><path fill="#F7FCFF" fill-rule="evenodd" d="M9.39441 3.1001H11.3986H11.4144H13.4186L13.0265 3.85211H11.8056V4.25604H12.7416L12.3603 4.95565H11.8056V6.3548L12.7192 4.91516L13.9016 6.96246H13.4186L13.2499 6.7383H12.1797L11.4272 8.12876L11.4274 8.20557L11.4065 8.16699L11.3856 8.20557L11.3858 8.12876L10.6333 6.7383H9.56311L9.39441 6.96246H8.91138L10.0937 4.91516L11.0073 6.3548V3.85211H9.78649L9.39441 3.1001ZM12.7428 5.75485L12.4802 6.15871H12.9773L12.7428 5.75485ZM10.0702 5.75485L10.3328 6.15871H9.83567L10.0702 5.75485ZM8.1568 5.30672L8.57231 5.00038L8.98783 5.30672L8.84124 4.79337L9.24464 4.46935L8.73852 4.45842L8.57231 3.95183L8.40611 4.45842L7.89999 4.46935L8.30339 4.79337L8.1568 5.30672ZM14.2277 5.00038L13.8122 5.30672L13.9587 4.79337L13.5554 4.46935L14.0615 4.45842L14.2277 3.95183L14.3939 4.45842L14.9 4.46935L14.4966 4.79337L14.6432 5.30672L14.2277 5.00038ZM12.5397 8.90175L12.9552 8.59541L13.3707 8.90175L13.2241 8.3884L13.6275 8.06438L13.1214 8.05346L12.9552 7.54686L12.789 8.05346L12.2829 8.06438L12.6863 8.3884L12.5397 8.90175ZM9.84477 8.59541L9.42925 8.90175L9.57584 8.3884L9.17245 8.06438L9.67856 8.05346L9.84477 7.54686L10.011 8.05346L10.5171 8.06438L10.1137 8.3884L10.2603 8.90175L9.84477 8.59541ZM10.9845 10.1001L11.4 9.79376L11.8155 10.1001L11.6689 9.58675L12.0723 9.26273L11.5662 9.2518L11.4 8.74521L11.2338 9.2518L10.7277 9.26273L11.1311 9.58675L10.9845 10.1001Z" clip-rule="evenodd"/><path fill="#2E42A5" stroke="#fff" stroke-width=".5" d="M-.25-.25H6.25V5.25H-.25z"/><mask id="TF_svg__c" width="8" height="7" x="-1" y="-1" mask-type="alpha" maskUnits="userSpaceOnUse"><path fill="#fff" stroke="#fff" stroke-width=".5" d="M-.25-.25H6.25V5.25H-.25z"/></mask><g fill-rule="evenodd" clip-rule="evenodd" mask="url(#TF_svg__c)"><path fill="#F50100" d="M4 0H6V5H4V0Z"/><path fill="#2E42A5" d="M0 0H2V5H0V0Z"/><path fill="#F7FCFF" d="M2 0H4V5H2V0Z"/></g></g></g></svg>

<svg xmlns="http://www.w3.org/2000/svg" fill="none" viewBox="0 0 16 12"><mask id="TF_svg__a" width="16" height="12" x="0" y="0" maskUnits="userSpaceOnUse"><path fill="#fff" d="M0 0h16v12H0z"/></mask><g mask="url(#TF_svg__a)"><path fill="#2E42A5" fill-rule="evenodd" d="M0 0v12h16V0H0z" clip-rule="evenodd"/><mask id="TF_svg__b" width="16" height="12" x="0" y="0" maskUnits="userSpaceOnUse"><path fill="#fff" fill-rule="evenodd" d="M0 0v12h16V0H0z" clip-rule="evenodd"/></mask><g mask="url(#TF_svg__b)"><path fill="#F7FCFF" fill-rule="evenodd" d="M9.394 3.1h4.025l-.393.752h-1.22v.404h.936l-.382.7h-.554v1.399l.913-1.44 1.183 2.047h-.483l-.17-.224h-1.07l-.752 1.39v.077l-.02-.038-.021.038V8.13l-.753-1.39h-1.07l-.169.223h-.483l1.183-2.047.913 1.44V3.852h-1.22L9.394 3.1zm3.349 2.655l-.263.404h.497l-.234-.404zm-2.673 0l.263.404h-.497l.234-.404zm-1.913-.448L8.572 5l.416.307-.147-.514.404-.324-.506-.01-.167-.507-.166.506-.506.011.403.324-.146.514zM14.227 5l-.415.307.147-.514-.404-.324.507-.01.166-.507.166.506.506.011-.403.324.146.514L14.228 5zM12.54 8.902l.415-.307.416.307-.147-.514.404-.324-.507-.01-.166-.507-.166.506-.506.011.403.324-.146.514zm-2.695-.307l-.416.307.147-.514-.404-.324.507-.01.166-.507.166.506.506.011-.403.324.146.514-.415-.307zm1.14 1.505l.415-.306.415.306-.146-.513.403-.324-.506-.011-.166-.507-.166.507-.506.01.403.325-.146.513z" clip-rule="evenodd"/><path fill="#2E42A5" stroke="#fff" stroke-width=".5" d="M-.25-.25h6.5v5.5h-6.5z"/><mask id="TF_svg__c" width="8" height="7" x="-1" y="-1" maskUnits="userSpaceOnUse"><path fill="#fff" stroke="#fff" stroke-width=".5" d="M-.25-.25h6.5v5.5h-6.5z"/></mask><g fill-rule="evenodd" clip-rule="evenodd" mask="url(#TF_svg__c)"><path fill="#F50100" d="M4 0h2v5H4V0z"/><path fill="#2E42A5" d="M0 0h2v5H0V0z"/><path fill="#F7FCFF" d="M2 0h2v5H2V0z"/></g></g></g></svg>
